svgs/sharp-light/filter-slash.svg

<svg xmlns="http://www.w3.org/2000/svg" viewBox="0 0 640 512"><!--! Font Awesome Pro 6.6.0 by @fontawesome - https://fontawesome.com License - https://fontawesome.com/license (Commercial License) Copyright 2024 Fonticons, Inc. --><path d="M40.4 18L27.8 8.1 8.1 33.4l12.6 9.8L599.8 494.3l12.6 9.8 19.7-25.2L619.5 469 40.4 18zM576 96l0-32 0-32-32 0L139.6 32l40.5 32L544 64l0 20.2L407.4 243.5l25.1 19.8L576 96zM352 362.8l0 78.7-64-56 0-73.2L256 287l0 113 96 84 32 28 0-42.5 0-81.4-32-25.3z"/></svg>

<svg xmlns="http://www.w3.org/2000/svg" viewBox="0 0 640 512"><!--! Font Awesome Pro 6.4.0 by @fontawesome - https://fontawesome.com License - https://fontawesome.com/license (Commercial License) Copyright 2023 Fonticons, Inc. --><path d="M40.4 18L27.8 8.1 8.1 33.4l12.6 9.8L599.8 494.3l12.6 9.8 19.7-25.2L619.5 469 40.4 18zM576 96V64 32H544 139.6l40.5 32H544V84.2L407.4 243.5l25.1 19.8L576 96zM352 362.8v78.7l-64-56V312.3L256 287V400l96 84 32 28V469.5 388.1l-32-25.3z"/></svg>
